icon-themes/sifr_svg/cmd/sc_insertendnote.svg

<svg viewBox="0 0 16 16" xmlns="http://www.w3.org/2000/svg"><path d="m12 1v2h2v-2zm-8 3a3 3 0 0 0 -3 3v4a3 3 0 0 0 3 3h4v-2h-4a1 1 0 0 1 -1-1 1 1 0 0 1 1-1h3a3 3 0 0 0 3-3 3 3 0 0 0 -3-3zm8 0v5h2v-5zm-8 2h3a1 1 0 0 1 1 1 1 1 0 0 1 -1 1h-3a1 1 0 0 1 -1-1 1 1 0 0 1 1-1z" fill="#555753"/></svg>

<svg xmlns="http://www.w3.org/2000/svg" viewBox="0 0 16 16">
  <path
     style="fill:#555753"
     d="M 12 1 L 12 3 L 14 3 L 14 1 L 12 1 z M 4 4 A 3 3 0 0 0 1 7 L 1 11 A 3 3 0 0 0 4 14 L 8 14 L 8 12 L 4 12 A 1 1 0 0 1 3 11 A 1 1 0 0 1 4 10 L 7 10 A 3 3 0 0 0 10 7 A 3 3 0 0 0 7 4 L 4 4 z M 12 4 L 12 9 L 14 9 L 14 4 L 12 4 z M 4 6 L 7 6 A 1 1 0 0 1 8 7 A 1 1 0 0 1 7 8 L 4 8 A 1 1 0 0 1 3 7 A 1 1 0 0 1 4 6 z "
     />
</svg>
